public/images/type-icons/ground.svg

<svg fill="none" height="512" viewBox="0 0 512 512" width="512" xmlns="http://www.w3.org/2000/svg"><path clip-rule="evenodd" d="m112.764 439.754c-.139 0-.236-.137-.19-.268l130.715-369.352c.029-.0803.105-.134.19-.134h139.542c.085 0 .162.0541.19.1349l128.776 369.3521c.045.131-.052.267-.19.267h-395.105zm-112.562694 1.445c-.1403938 0-.2375912-.14-.1883453-.271l97.3396393-259.872c.0295-.079.1045-.131.1884-.131h84.577c.14 0 .237.139.189.27l-94.1247 259.872c-.0288.079-.1044.132-.1891.132z" fill="#fff" fill-rule="evenodd"/></svg>

<svg width="512" height="512" viewBox="0 0 512 512" fill="none" xmlns="http://www.w3.org/2000/svg">
<path fill-rule="evenodd" clip-rule="evenodd" d="M112.764 439.754C112.625 439.754 112.528 439.617 112.574 439.486L243.289 70.134C243.318 70.0537 243.394 70 243.479 70H383.021C383.106 70 383.183 70.0541 383.211 70.1349L511.987 439.487C512.032 439.618 511.935 439.754 511.797 439.754H116.692H112.764ZM0.201306 441.199C0.0609122 441.199 -0.0362852 441.059 0.0129607 440.928L97.3526 181.056C97.3821 180.977 97.4571 180.925 97.541 180.925H182.118C182.258 180.925 182.355 181.064 182.307 181.195L88.1823 441.067C88.1535 441.146 88.0779 441.199 87.9932 441.199H0.201306Z" fill="white"/>
</svg>
